X:1
T:Harington, CM
T:Harington, CM
T:Henry Harington (1727-1816)
T:Public Domain Courtesy of the Cyber Hymnal™
C:Henry Harington (1727-1816)
Z:Public Domain
Z:Courtesy of the Cyber Hymnal™
%%score ( 1 2 ) ( 3 4 )
L:1/8
Q:1/4=115
M:3/4
K:D
V:1 treble 
V:2 treble 
V:3 bass 
V:4 bass 
V:1
 [FA]2 | ([Dd]2 [Ec]2) [FB]2 | A3 (z G) [DF]2 | [DG]2 [FA]2 [GB]2 | [GB]2 [FA]2 [EA]2 | %5
 ([EA]2 [D^G]2) [EA]2 | (FB [EA]2) ^G2 | [CA]4 ([CE][FA]) | ([FA]2 [EG]2) [DF]2 | %9
 ([DF]2 [CE]2) D2 | (E>F [EG]2) [DF]2 | [DB]4 (Ad) | (d2 c2 [Fd]2) | ([B,E][EG] [DF]2) [CE]2 | %14
 D4 |] %15
V:2
 x2 | x6 | E2 C2 x3 | x6 | x6 | x6 | F2 x (E D) x | x6 | x6 | x4 D2 | C2 x4 | x4 D2 | G4 x2 | x6 | %14
 D4 |] %15
V:3
 [D,D]2 | ([F,A,]2 [E,G,]2) [D,F,]2 | A,4 [D,A,]2 x | D4 [G,,D]2 | [D,D]4 [C,A,]2 | %5
 ([C,A,]2 [B,,B,]2) [A,,C]2 | [D,D]2 (C2 B,2) | [A,,A,]4 [A,,A,]2 | [A,,A,]4 A,2 | A,4 [F,A,]2 | %10
 ([E,G,]2 [C,A,]2) [D,A,]2 | G,4 [F,A,]2 | A,4 [D,A,]2 | ([G,B,]2 A,2) [A,,A,]2 | [D,F,]4 |] %15
V:4
 x2 | x6 | (C,2 A,,2) x3 | (B,,2 A,,2) x2 | x6 | x6 | x2 E,4 | x6 | x4 (D,A,) | (A,2 G,2) x2 | x6 | %11
 G,4 x2 | (E,2 A,,2) x2 | x2 A,2 x2 | x4 |] %15

